X: 18583
T: I Ne'er Shall Wean Her
R: jig
M: 6/8
K: Aminor
|:EGG GED|EGG c2B|~A3 AGA|cde e2B|
cde g2a|ged c2d|(3e/f/g/ae ged|1 cAG AGF:|2 cAG A2d||
|:g2g- ged|g2g- ged|a2a- aga|bag a2e|
cde g2a|ged c2d|(3e/f/g/ae ged|1 cAG A2d:|2 cAG AGF||

